flaticon/files-and-folders/clipboard-4.svg

<svg xmlns="http://www.w3.org/2000/svg" width="32" height="32" viewBox="0 0 24 24">
    <path d="M 18.398438 2.800781 L 16.398438 2.800781 L 16.398438 2.398438 C 16.398438 1.960938 16.039062 1.601562 15.601562 1.601562 L 14.398438 1.601562 L 14.398438 1.199219 C 14.398438 0.519531 13.878906 0 13.199219 0 L 10.800781 0 C 10.121094 0 9.601562 0.558594 9.601562 1.199219 L 9.601562 1.601562 L 8.398438 1.601562 C 7.960938 1.601562 7.601562 1.960938 7.601562 2.398438 L 7.601562 2.800781 L 5.601562 2.800781 C 4.480469 2.800781 3.601562 3.679688 3.601562 4.800781 L 3.601562 22 C 3.601562 23.121094 4.480469 24 5.601562 24 L 18.398438 24 C 19.519531 24 20.398438 23.121094 20.398438 22 L 20.398438 4.800781 C 20.398438 3.679688 19.519531 2.800781 18.398438 2.800781 Z M 8.398438 2.398438 L 10 2.398438 C 10.238281 2.398438 10.398438 2.238281 10.398438 2 L 10.398438 1.199219 C 10.398438 0.960938 10.558594 0.800781 10.800781 0.800781 L 13.199219 0.800781 C 13.441406 0.800781 13.601562 1 13.601562 1.199219 L 13.601562 2 C 13.601562 2.238281 13.761719 2.398438 14 2.398438 L 15.601562 2.398438 L 15.601562 5.199219 L 8.398438 5.199219 Z M 19.601562 22 C 19.601562 22.679688 19.078125 23.199219 18.398438 23.199219 L 5.601562 23.199219 C 4.921875 23.199219 4.398438 22.679688 4.398438 22 L 4.398438 4.800781 C 4.398438 4.121094 4.921875 3.601562 5.601562 3.601562 L 7.601562 3.601562 L 7.601562 5.199219 C 7.601562 5.640625 7.960938 6 8.398438 6 L 15.601562 6 C 16.039062 6 16.398438 5.640625 16.398438 5.199219 L 16.398438 3.601562 L 18.398438 3.601562 C 19.078125 3.601562 19.601562 4.121094 19.601562 4.800781 Z M 19.601562 22"/>
    <path d="M 16.800781 12 L 13.480469 12 L 12.359375 8.679688 C 12.320312 8.519531 12.160156 8.398438 12 8.398438 C 11.839844 8.398438 11.679688 8.519531 11.640625 8.679688 L 10.519531 12 L 7.199219 12 C 7.039062 12 6.878906 12.121094 6.839844 12.28125 C 6.761719 12.441406 6.839844 12.601562 6.960938 12.71875 L 9.601562 14.878906 L 8.480469 18.28125 C 8.398438 18.441406 8.480469 18.601562 8.601562 18.71875 C 8.679688 18.761719 8.761719 18.800781 8.839844 18.800781 C 8.878906 18.800781 8.960938 18.800781 9 18.761719 L 12 16.878906 L 15 18.761719 C 15.121094 18.839844 15.320312 18.839844 15.441406 18.71875 C 15.558594 18.601562 15.601562 18.441406 15.558594 18.28125 L 14.441406 14.878906 L 17.039062 12.71875 C 17.160156 12.601562 17.199219 12.441406 17.160156 12.28125 C 17.121094 12.121094 16.960938 12 16.800781 12 Z M 13.71875 14.398438 C 13.601562 14.519531 13.558594 14.679688 13.601562 14.839844 L 14.480469 17.480469 L 12.238281 16.078125 C 12.199219 16.039062 12.121094 16 12.039062 16 C 11.960938 16 11.878906 16.039062 11.761719 16.078125 L 9.519531 17.480469 L 10.398438 14.839844 C 10.441406 14.679688 10.398438 14.519531 10.28125 14.398438 L 8.320312 12.800781 L 10.800781 12.800781 C 10.960938 12.800781 11.121094 12.679688 11.199219 12.519531 L 12.039062 10.039062 L 12.878906 12.519531 C 12.921875 12.679688 13.078125 12.800781 13.238281 12.800781 L 15.679688 12.800781 Z M 13.71875 14.398438"/>
</svg>

<svg xmlns="http://www.w3.org/2000/svg" width="32" height="32" viewBox="0 0 24 24">
    <path d="M18.398 2.8h-2v-.402a.8.8 0 0 0-.796-.796h-1.204v-.403C14.398.52 13.878 0 13.2 0h-2.398c-.68 0-1.2.559-1.2 1.2v.402H8.399a.8.8 0 0 0-.796.796v.403h-2c-1.122 0-2 .879-2 2V22c0 1.121.878 2 2 2h12.796c1.122 0 2-.879 2-2V4.8c0-1.12-.878-2-2-2zm-10-.402H10c.238 0 .398-.16.398-.398v-.8c0-.24.16-.4.403-.4h2.398a.4.4 0 0 1 .403.4V2c0 .238.16.398.398.398h1.602V5.2H8.398zM19.602 22c0 .68-.524 1.2-1.204 1.2H5.602A1.18 1.18 0 0 1 4.398 22V4.8c0-.679.524-1.198 1.204-1.198h2v1.597c0 .442.359.801.796.801h7.204c.437 0 .796-.36.796-.8V3.601h2c.68 0 1.204.52 1.204 1.199zm0 0"/>
    <path d="M16.8 12h-3.32l-1.12-3.32a.383.383 0 0 0-.36-.282c-.16 0-.32.122-.36.282L10.52 12H7.2c-.16 0-.321.121-.36.281-.078.16 0 .32.12.438l2.642 2.16L8.48 18.28c-.082.16 0 .32.122.438.078.043.16.082.238.082.039 0 .12 0 .16-.04l3-1.882 3 1.883c.121.078.32.078.441-.043.118-.117.16-.278.118-.438L14.44 14.88l2.598-2.16c.121-.117.16-.278.121-.438A.383.383 0 0 0 16.8 12zm-3.081 2.398a.453.453 0 0 0-.117.442l.878 2.64-2.242-1.402A.3.3 0 0 0 12.04 16c-.078 0-.16.04-.277.078L9.52 17.48l.878-2.64c.043-.16 0-.32-.117-.442l-1.96-1.597h2.48c.16 0 .32-.121.398-.281l.84-2.48.84 2.48c.043.16.2.28.36.28h2.44zm0 0"/>
</svg>
